X:1
T:Title
%%score 1 2 3 4
L:1/8
M:4/4
K:C
V:1 treble nm="Part_1"
V:2 treble-8 nm="Part_2"
V:3 treble-8 nm="Part_3"
V:4 treble-8 nm="Part_4"
V:1
 F8 | F4 G4 | A6 c2- | c2 _B2 A2 F2 | E4 z2 A2 | G2 E2 D4 | z2 E2 F2 G2 | (3:2:2A4 F2 G2 c2- | %8
 c2 B2 c4- | c2 A4 F2 | G4 A4 | z2 E2 G4 | A2 G2 A2 c2- | c2 _B2 A4 | G2 A2 E2 D2 | E2 F4 A2 | %16
 _B2 c4 A2 | G2 A4 G2 | E2 G4 F2 | G2 E2 D4 | C4 z2 c2- | c2 _B2 A2 c2- | c_BAG F2 G2 | %23
 A2 c3 _BAG | F4 A2 G2 | A2 _B2 c4 | A2 F2 E4 | A2 G3 F F2- |[M:2/4] F2 E2 |[M:4/4] F8 || c6 _B2 | %31
 A2 G4 F2 | E2 G4 F2 | E2 G3 FED | E2 C2 B,4 | C4 z2 c2- | c2 B2 A4 | G2 A4 F2- | F2 A2 G2 A2- | %39
 A2 F4 E2- | E2 D2 E2 F2 | G4 F2 E2 | C2 D2 E2 G2 | A2 c4 d2 | c3 A _B2 A2- | A2 G2 A4 | %46
 z2 _B4 A2 | G4 F4 | z2 _B2 A2 F2 | G2 F4 _B2 | A2 c4 A2 | B2 c2 d2 c2- | c2 B2 c4 | A2 G2 B2 c2- | %54
 c2 A2 G2 A2 | F4 E4 | C2 D2 E2 F2 | A2 G3 F F2- |[M:2/4] F2 E2 |[M:4/4] F8 |] %60
V:2
 c8 | c4 d2 e2 | c4 f2 f2- | f2 e2 f4 | z2 c2 d2 A2 | B2 G2 A2 B2 | c4 z2 c2- | c2 d2 e2 g2 | %8
 f2 d2 e4 | c4 z2 d2 | e2 c4 A2- | A2 c2 d2 e2 | c2 d2 e2 f2 | g4 z2 c2 | d2 c2 z2 f2 | e2 c4 f2 | %16
 e2 f2 c3 d | e2 c4 d2 | e4 d2 c2 | d2 e2 f2 d2 | e4 c2 f2- | f2 e2 f4 | e4 z2 c2 | d2 f2 e4 | %24
 c4 z2 c2 | d2 f2 e2 c2 | c4 z2 e2 | d2 e2 c2 c2- |[M:2/4] c2 B2 |[M:4/4] c8 || f8 | e2 c2 d4 | %32
 c4 z2 d2 | e2 c2 B4 | c2 e2 d2 f2 | e4 c2 f2- | f2 e2 f4 | z8 | z8 | z8 | z8 | z8 | z8 | f6 d2 | %44
 e2 f2 d2 c2 | d4 c2 f2- | f2 e2 f4 | e2 d4 f2- | f2 e2 f4 | z2 c2 d2 e2 | f4 c4 | z2 e2 d2 e2 | %52
 f4 e2 c2 | d2 e2 f2 e2 | c3 d e3 c | c4 z4 | e2 d2 c4 | d2 e2 c2 c2- |[M:2/4] c2 B2 |[M:4/4] c8 |] %60
V:3
[K:F] F8 | A4 B2 c2- | c2 A2 F2 A2 | G4 z2 A2 | G2 E2 D4 | z2 G2 F2 D2 | C4 D2 E2 | F4 E2 C2 | %8
 D4 C4 | z2 F2 F4 | E4 F4 | c4 B2 c2- | c2 B2 c2 A2 | G4 c4 | B2 c4 B2 | c2 A2 F4 | G2 A2 F4 | %17
 E2 F2 A2 B2 | c4 G2 A2 | G2 c4 B2 | c4 A2 F2 | G4 F4 | z2 C2 D2 E2 | F4 C4 | z2 F4 E2 | %25
 F2 D2 C2 F2- | F2 A4 G2 | F2 E2 F2 A2 |[M:2/4] G4 |[M:4/4] F8 ||[K:C] F8 | c4 _B4 | z2 c2 _B4 | %33
 c4 G4 | z2 c2 d4 | c2 A4 F2 | G4 F2 D2 | E2 F2 D4 | F2 D2 E2 F2 | D4 F2 G2 | A2 B2 c3 A | %41
 B2 c2 d2 c2- | c2 B2 c4 | F4 z2 B2 | A3 F G2 A2 | _B4 A4 | G4 F4 | z2 _B4 A2 | G4 F4 | %49
 _B2 A2 F2 G2 | F4 A4 | G2 E2 F2 C2 | D4 C2 F2- | F2 E2 D2 C2 | F4 E2 F2- | F2 A4 c2- | %56
 c2 B2 c2 F2- | F2 E2 F2 A2 |[M:2/4] G4 |[M:4/4] F8 |] %60
V:4
 c4 A4 | F4 z2 C2 | F3 G A2 F2 | z2 G2 F2 DF | C2 G2 A2 F2 | G2 C2 F4 | G4 F2 E2 | D4 C4 | %8
 z4 z2 G2 | A3 B c2 A2 | B2 c2 A4 | F2 A2 G2 C2- | C2 G2 z2 c2 | d4 A2 F2 | G2 z2 C2 D2 | %15
 C2 F2 c2 A2 | G2 F4 c2- | c_BAG F2 ED | C4 z2 c2 | _B2 A2 F2 G2 | C4 F4 | z2 _B2 c4- | c4 z4 | %23
 A3 _B c3 B | AG F2 c4 | A2 F2 G2 A2- | A2 F2 z2 C2 | F2 G2 A2 F2 |[M:2/4] G2 B2 |[M:4/4] [Ac]8 || %30
 c4 A4- | A2 c2 G2 D2 | E2 C E2 F D2 | C4 z4 | C4 G2 D2 | A3 B c4 | z2 B2 c2 d2 | cB d3 cBA | %38
 A2 d2 cB d2- | dcBA A2 B2 | c2 G2 C2 z2 | E4 D2 E2 | F2 D2 C4 | c4 A2 G2 | c2 F2 z2 c2 | %45
 G4 z2 c2 | _B2 G2 z2 c2- | c2 G2 d2 c2 | d2 z2 A2 c2 | z2 F2 A2 _B2 | c4 F4 | E2 C2 z2 c2 | %52
 A2 F2 G2 A2- | AB c2 d2 z2 | A2 c4 A2- | A2 F2 c2 z2 | C2 G2 C2 z2 | F2 G2 A2 F2 |[M:2/4] G2 B2 | %59
[M:4/4] [Ac]8 |] %60

